actions/symbolic/error-correct-symbolic.svg

<?xml version="1.0" encoding="UTF-8" standalone="no"?>
<svg
   xmlns:dc="http://purl.org/dc/elements/1.1/"
   xmlns:cc="http://creativecommons.org/ns#"
   xmlns:rdf="http://www.w3.org/1999/02/22-rdf-syntax-ns#"
   xmlns:svg="http://www.w3.org/2000/svg"
   xmlns="http://www.w3.org/2000/svg"
   xmlns:sodipodi="http://sodipodi.sourceforge.net/DTD/sodipodi-0.dtd"
   xmlns:inkscape="http://www.inkscape.org/namespaces/inkscape"
   height="16"
   width="16"
   version="1.1"
   id="svg8"
   sodipodi:docname="error-correct-symbolic.svg"
   inkscape:version="0.92.2pre0 (973e216, 2017-07-25)">
  <metadata
     id="metadata14">
    <rdf:RDF>
      <cc:Work
         rdf:about="">
        <dc:format>image/svg+xml</dc:format>
        <dc:type
           rdf:resource="http://purl.org/dc/dcmitype/StillImage" />
      </cc:Work>
    </rdf:RDF>
  </metadata>
  <defs
     id="defs12" />
  <sodipodi:namedview
     pagecolor="#ffffff"
     bordercolor="#808080"
     borderopacity="1"
     objecttolerance="10"
     gridtolerance="10"
     guidetolerance="10"
     inkscape:pageopacity="0"
     inkscape:pageshadow="2"
     inkscape:window-width="1920"
     inkscape:window-height="1001"
     id="namedview10"
     showgrid="false"
     inkscape:zoom="14.75"
     inkscape:cx="8"
     inkscape:cy="8"
     inkscape:window-x="0"
     inkscape:window-y="0"
     inkscape:window-maximized="1"
     inkscape:current-layer="svg8" />
  <g
     transform="translate(-92 -80)"
     id="g6"
     style="fill:#808080;fill-opacity:1">
    <path
       d="M105.238 81l-.353.36-8.969 9.095-.03.045c-.061.099-.27.45-.583 1.088-.314.638-.7 1.51-1.012 2.492L94 95l.92-.291a18.163 18.163 0 0 0 2.492-1.012c.638-.314.987-.52 1.088-.584l.045-.029L108 83.762zm-8.347 9.89l1.218 1.22-.177.175c.007-.005-.379.227-.961.514-.214.105-.536.222-.834.338l-.274-.274c.116-.298.233-.62.338-.834.287-.582.518-.966.514-.96z"
       fill="#808080"
       font-family="Ubuntu"
       font-size="15"
       font-weight="400"
       letter-spacing="0"
       style="line-height:125%;-inkscape-font-specification:Ubuntu;text-align:center;fill:#808080;fill-opacity:1"
       text-anchor="middle"
       word-spacing="0"
       id="path2" />
    <path
       color="#000"
       d="M104 81h-6.5c-1.5 0-2.493.64-2.974 1.558-.482.918-.525 2.018-.525 3.07v.373h-2c.347.76.736 1.537 1.166 2.325.43.78.875 1.533 1.334 2.258.449-.725.889-1.478 1.32-2.258A43.07 43.07 0 0 0 97 86V86h-2v-.37c0-1.013.079-1.975.41-2.606.33-.631.84-1.024 2.09-1.024h6.5z"
       fill="#808080"
       font-family="sans-serif"
       font-weight="400"
       overflow="visible"
       style="line-height:normal;font-variant-ligatures:none;font-variant-position:normal;font-variant-caps:normal;font-variant-numeric:normal;font-variant-alternates:normal;font-feature-settings:normal;text-indent:0;text-align:start;text-decoration-line:none;text-decoration-style:solid;text-decoration-color:#000;text-transform:none;shape-padding:0;isolation:auto;mix-blend-mode:normal;marker:none;fill:#808080;fill-opacity:1"
       white-space="normal"
       id="path4" />
  </g>
</svg>

<svg xmlns="http://www.w3.org/2000/svg" width="16" height="16" version="1.1">
 <g style="fill:#808080" transform="translate(-92,-80)">
  <path style="fill:#808080" d="M 105.24,81 104.89,81.36 95.916,90.455 95.886,90.5 C 95.825,90.599 95.616,90.95 95.303,91.588 94.989,92.226 94.603,93.098 94.291,94.08 L 94,95 94.92,94.709 A 18.163,18.163 0 0 0 97.412,93.697 C 98.05,93.383 98.399,93.177 98.5,93.113 L 98.545,93.084 108,83.762 Z M 96.891,90.89 98.109,92.11 97.932,92.285 C 97.939,92.28 97.553,92.512 96.971,92.799 96.757,92.904 96.435,93.021 96.137,93.137 L 95.863,92.863 C 95.979,92.565 96.096,92.243 96.201,92.029 96.488,91.447 96.719,91.063 96.715,91.069 Z"/>
  <path style="fill:#808080" d="M 104,81 H 97.5 C 96,81 95.007,81.64 94.526,82.558 94.044,83.476 94.001,84.576 94.001,85.628 V 86.001 H 92.001 C 92.348,86.761 92.737,87.538 93.167,88.326 93.597,89.106 94.042,89.859 94.501,90.584 94.95,89.859 95.39,89.106 95.821,88.326 A 43.07,43.07 0 0 0 97,86 V 86 H 95 V 85.63 C 95,84.617 95.079,83.655 95.41,83.024 95.74,82.393 96.25,82 97.5,82 H 104 Z"/>
 </g>
</svg>
